X:1
T:James Gibb editions
T:Oh, walk with God - Barnby
%%score [ ( 1 2 ) ( 3 4 5 ) ]
L:1/8
Q:1/4=80
M:4/4
K:D
V:1 treble nm="Midi_74"
V:2 treble 
V:3 bass nm="Midi_74"
V:4 bass 
V:5 bass 
V:1
"^Bold""^Joseph Barnby\n(1838-96)""^Oh, walk with God""^(D.C.M.)" d2 |"^i" B2 A2 G2 A2 | F3 E D2 || %3
 E2 | FG A2 A2 E2 | F6 ||[M:4/4] d2 | c2 B2 ^A2 B2 | =A3 G F2 || B2 | A!<(!B cd!<)!!ff! e2 Bc | %11
 A6 ||!mf! A2 | A2 F2 G2 A2 | B3 B B2 || B2 | B2 ^G2 A2 B2 | c6 ||!f! A2 | d2!<(! B2 A2!<)! B2 | %20
!>(! A2 G2!>)! F2 || E2 | A2 F2 E2 F2 | D6 || G4 F4 |] %25
V:2
 F2 | D2 D2 B,2 E2 | D2"^1" C2 D2 || D2 | D2 D2 D2 C2 | D6 ||[M:4/4] D2 | E2 F2 F2 F2 | E2 E2 C2 || %9
 F2 | E2 A2 ^G2 G2 | A6 || E2 | D2 D2 D2 D2 | D2 ^D2 E2 || D2 | E2 E2 E2 E2 | E6 || E2 | %19
 D2 D2 D2 ^D2 | E2 E2 B,2 || B,2 | D2 D2 C2 C2 | D6 || D4 D4 |] %25
V:3
!f! A,2 | G,2 A,2 B,2 A,2 | A,2 G,2 F,2 || B,2 | A,2 F,2"^1" E,2 G,2 | F,6 ||[M:4/4] F,2 | %7
 G,2 B,2 E2 D2 | C3 B, ^A,2 || B,2 | C2 E2 D2 D2 | C6 || C2 | D2 D2 D2 =C2 | B,2 B,2 B,2 || A,2 | %16
"^cresc." ^G,2 B,2 E2 D2 | C6 || C2 | A,2 G,2 F,2 B,2 | =C2 B,2 A,2 ||"^1" G,2 | F,2 A,2 G,2 A,2 | %23
 F,6 || B,4 A,4 |] %25
V:4
 D,2 | G,2 F,2 E,2 C,2 | D,2 A,,2 B,,2 || G,,2 | A,,2 A,,2 A,,2 A,,2 | D,6 ||[M:4/4] B,,2 | %7
 E,2 D,2 C,2 D,2 | E,2 C,2 F,2 || D,2 | E,2 E,2 E,2 E,2 | A,6 || !courtesy!=G,2 | %13
 F,2 D,2 E,2 F,2- | G,2 A,2 G,2 || F,2 | E,2 E,2 F,2 ^G,2 | A,6 || !courtesy!=G,2 | %19
 F,2 G,2 D,2 B,,2 | E,2 E,2 G,,2 || G,,2 | A,,2 A,,2 A,,2 A,,2 | D,6 || G,,4 D,4 |] %25
V:5
 x2 | x8 | x6 || x2 | x8 | x6 ||[M:4/4] x2 | x2 x2 x2 x2 | x2 x2 x2 || x2 | x2 x2 E,,2 x2 | A,,6 || %12
 x2 | x8 | x6 || x2 | x8 | x6 || x2 | x8 | x6 || x2 | x8 | x6 || x8 |] %25

